X:1
T:The Merry Peasant
T:The Merry Peasant
T:Album for the Young
T:Robert Schumann, Op. 68, No. 10
C:Robert Schumann, Op. 68, No. 10
%%score { ( 1 3 ) | ( 2 4 ) }
L:1/8
Q:1/4=114
M:4/4
K:F
V:1 treble nm="Piano" snm="Pno."
V:3 treble 
V:2 bass 
V:4 bass 
V:1
"^Frisch und munter" z | z [CFA][CFA] z z [FAc][FAc] z | z [FBd][Bd] z z [FAc][FAc] z | %3
 z [EBc] [EBc]2 z [CFA] [CFA]2 | z !5![CG] z !4![FG=B] z [EGc] [EGc]2 | %5
 z [CFA][CFA] z z [FAc][FAc] z | z [FBd][Bd] z z [FAc][FAc] z | z [EBc] [EBc]2 z [CFA] [CFA]2 | %8
 z [CG] z [FG=B] z [EGc] [EGc] (C | B3 A G3) (C | !>!B.A.G.F G3)!f! (!2!C | %11
 !5!F3) (!3!A !5!c3) (!1!F | !2!B!4!dfd !3!c3) z | z [EBc] [EBc]2 z [CFA][CFA][CFA] | %14
 z [DG] z [B,C] z [A,CF] [A,CF] C | B3 A G3 (C | !>!B.A.G.F G3)!f! (!2!C | %17
 !5!F3) (!3!A !5!c3) (!1!F | !2!B!4!dfd !3!c3) z | z [EBc] [EBc]2 z [CFA][CFA][CFA] | %20
 z [DG] z [B,C] z [A,CF] [A,CF] z |] %21
V:2
!f! (!5!C, | !3!F,3 A, C3 !5!F,) | (!3!B,DFD !1!C3 (!2!A,) | !1!B,G,C,!1!B, !1!A,!2!F,C,!1!A, | %4
 !3!E,2 D,2 C,2) z!f! (C, | F,3 A, C3 F,) | (B,DFD C3 (A,) | B,G,C,B, A,F,C,A, | %8
 E,2 D,2 C,2) z (C, | G,3 F, E,3) (C, | !>!G,.F,.E,.D, E,3)!f! (C, | !3!F,3) (!2!A, C3) (F, | %12
 B,DFD !1!C3) (A, | B,G,C,!1!B,) (!1!A,F,C,A,) | (!1!G,2 !2!E,2 !1!F,2) z C, | G,3 F, E,3 (C, | %16
 !>!G,.F,.E,.D, E,3)!f! (C, | !3!F,3) (!2!A, C3) (F, | B,DFD !1!C3) (A, | %19
 B,G,C,!1!B,) (!1!A,F,C,A,) | (!1!G,2 !2!E,2 !1!F,2) z2 |] %21
V:3
 x | x8 | x8 | x8 | x8 | x8 | x8 | x8 | x8 | z ([CE][CE] z z [B,C][B,C]) z | z (CC=B, z CC) z | %11
 z [A,C][A,C] z z [FA][FA] z | z ([FB] z [FB] z [FA][FA]) z | x8 | x8 | %15
 z ([CE][CE] z z [B,C][B,C]) z | z (CC=B, z CC) z | z [A,C][A,C] z z [FA][FA] z | %18
 z ([FB] z [FB] z [FA][FA]) z | x8 | x8 |] %21
V:4
 x | x8 | x8 | x8 | x8 | x8 | x8 | x8 | x8 | x8 | x8 | x8 | x8 | x8 | !5!B,,2 !4!C,2 x4 | x8 | x8 | %17
 x8 | x8 | x8 | !5!B,,2 !4!C,2 x4 |] %21

